X:1
T:Title
%%score { ( 1 3 ) | 2 }
L:1/8
Q:1/4=81
M:6/8
K:F
V:1 treble nm="Grand Piano"
V:3 treble 
V:2 bass 
V:1
 c>=Bc AGF | B>EE E2 D | CE[EG] [Ec][EG][E_A] | [FA]6 | [Ac]>[GB]A AGF/F/ | E[EB][EB] [DGB]2 [CG] | %6
w: Edna~G.~Young * * * * *||||||
 [=B,FG]>[B,FA][B,FG] [DF=B][CFA][B,FG] | [CEc]6 | [CAc]>[CGB][CFA] [FAc]3 | %9
w: |||
 [CFA]>[B,FG][A,F] [Fd]3 | d>cB AGF | z3 G3 | F>GA c>=Bc | _e>ee d3 | %14
w: |||||
[M:13/16] A<c[Fd]3/2[Fc][FA]>G |[M:3/4] F6 |] %16
w: ||
V:2
 [F,A,F]>[F,_A,F][F,=A,F] [F,CF][F,B,C][F,A,C] | [G,CE]>[G,B,C][G,B,C] [C,B,C]2 [C,B,C] | %2
 [C,E,][C,G,C][C,C] [C,C][C,C][C,C] | [F,C]6 | [F,C]>[F,C][F,CF] [F,CF][F,B,C][F,A,C]/[F,A,C]/ | %5
 [G,C][C,C][C,C] C,2 E, | D,>D,D, G,G,G, | C,6 | F,>F,F, F,3 | F,>F,F, [B,,B,]3 | %10
 [F,B,F]>[F,A,F][F,DF] [F,CF][F,B,C][F,A,C] | [G,=B,]>[G,,F,][G,,F,] .[C,E,C]3 | %12
 [F,A,C]>[F,B,C][K:treble][F,CF] [F,A,F]>[F,_A,F][F,=A,F] | [A,CF]>[A,CF][A,CF] [B,F]3 | %14
[M:13/16][K:bass] [F,CF]<[F,A,F][B,,B,]3/2[C,A,][C,C]>[C,B,C] |[M:3/4] [F,A,C]6 |] %16
V:3
 x6 | x6 | x6 | x6 | x6 | x6 | x6 | x6 | x6 | x6 | x6 | G>[=B,A][B,G] z _B,2 | x6 | x6 | %14
[M:13/16] x13/2 |[M:3/4] x6 |] %16

